X:1
T:Bealoth, SMD
T:Bealoth, SMD
T:Lowell Mason, 1843
T:Public Domain Courtesy of the Cyber Hymnal™
C:Lowell Mason, 1843
Z:Public Domain
Z:Courtesy of the Cyber Hymnal™
%%score ( 1 2 ) ( 3 4 )
L:1/8
Q:1/4=115
M:4/4
K:A
V:1 treble 
V:2 treble 
V:3 bass 
V:4 bass 
V:1
 [Ec]2 [Ec][Ec] [Ec]2 [DB]2 | [CA]6 [CA]2 | [DB]2 [DB]2 [DB]2 ([Ec][DB]) | [CA]6 [CE]2 | %4
 [Ec]3 [Ec] [Ec]2 [DB]2 | [CA]2 [CA]2 [CA]2 [CA]2 | [DB]2 [DB]2 [DB]2 ([Ec][DB]) | [CA]6 (EF) | %8
 [EG]2 [EA]2 [EB]2 [Ac]2 | [Gd]6 [GB]2 | [Ac]2 ([GB][Ac]) [Bd]2 [Ac]2 | [GB]6 (cd) | %12
 [Ee]3 [Ec] [EA]2 E2 | [DF]2 [DF]2 E2 [EA]2 | [GB]2 [GB]2 [GB]2 (cB) | [EA]6 |] %16
V:2
 x8 | x8 | x8 | x8 | x8 | x8 | x8 | x8 | x8 | x8 | x8 | x6 E2 | x6 E2 | x8 | x6 G2 | x6 |] %16
V:3
 A,2 A,A, A,2 [E,G,]2 | [A,,A,]6 [A,,A,]2 | [E,G,]2 [E,G,]2 [E,G,]2 [E,G,]2 | [A,,A,]6 [A,,A,]2 | %4
 A,3 A, A,2 [E,G,]2 | [F,A,]2 [F,A,]2 [F,A,]2 [F,A,]2 | [E,G,]2 [E,G,]2 [E,G,]2 [E,G,]2 | %7
 [A,,A,]6 (G,A,) | [E,B,]2 [E,C]2 [E,G,]2 [E,A,]2 | [E,B,]6 [E,E]2 | [A,E]2 E2 [G,E]2 [A,E]2 | %11
 [E,E]6 (A,B,) | [A,C]3 [A,E] [A,C]2 [C,A,]2 | [D,A,]2 [D,A,]2 [C,A,]2 [A,,C]2 | %14
 [E,D]2 [E,D]2 [E,D]2 (ED) | [A,,C]6 |] %16
V:4
 A,2 A,A, A,2 x2 | x8 | x8 | x8 | A,3 A, A,2 x2 | x8 | x8 | x6 E,2 | x8 | x8 | x2 (B,A,) x4 | x8 | %12
 x8 | x8 | x6 E,2 | x6 |] %16

